public/images/logo1.svg

<svg width="240" height="200" viewBox="0 0 240 200" fill="none" xmlns="http://www.w3.org/2000/svg">
<rect x="49.7666" y="96.5352" width="31.1497" height="31.1497" rx="6.29995" fill="white"/>
<path fill-rule="evenodd" clip-rule="evenodd" d="M35.2999 73C31.8206 73 29 75.8206 29 79.2999V106.075C29 109.554 31.8206 112.375 35.2999 112.375H40.0249V94.1046C40.0249 90.6253 42.8455 87.8047 46.3248 87.8047H68.3747V79.2999C68.3747 75.8206 65.5541 73 62.0747 73H35.2999Z" fill="white"/>
<path d="M108.807 92.9043C104.175 92.9043 99.7347 96.2643 99.7347 102.072C99.7347 107.952 104.127 111.264 108.735 111.264C112.071 111.264 114.831 109.632 116.343 107.16L115.071 106.2C113.919 108.552 111.591 109.824 108.879 109.824C104.991 109.824 101.367 107.184 101.367 102.096C101.367 96.9363 105.063 94.3443 108.879 94.3443C111.471 94.3443 113.871 95.5443 115.047 97.9203L116.295 96.9363C114.759 94.2963 111.807 92.9043 108.807 92.9043ZM124.94 98.0643C121.292 98.0643 118.388 100.728 118.388 104.664C118.388 108.6 121.292 111.264 124.94 111.264C128.588 111.264 131.516 108.6 131.516 104.664C131.516 100.728 128.588 98.0643 124.94 98.0643ZM119.972 104.664C119.972 101.568 122.012 99.5043 124.94 99.5043C127.868 99.5043 129.932 101.568 129.932 104.664C129.932 107.76 127.868 109.824 124.94 109.824C122.084 109.824 119.972 107.76 119.972 104.664ZM134.509 98.4243V110.904H136.069V104.184C136.069 101.328 137.293 99.4803 139.693 99.4803C141.685 99.4803 142.837 100.608 142.837 103.224V110.904H144.397V103.704C144.397 101.136 145.669 99.4803 148.021 99.4803C150.013 99.4803 151.165 100.608 151.165 103.152V110.904H152.725V102.768C152.725 99.6723 150.901 98.0643 148.309 98.0643C146.149 98.0643 144.709 99.2163 143.989 100.536C143.317 99.0723 141.973 98.0643 139.981 98.0643C138.277 98.0643 136.885 98.8323 136.069 100.248V98.4243H134.509ZM163.095 111.264C166.983 111.264 169.431 108.312 169.431 104.664C169.431 101.016 166.983 98.0643 163.095 98.0643C160.767 98.0643 159.039 99.0963 158.007 100.632V98.4243H156.447V116.064H158.007V108.696C159.039 110.232 160.743 111.264 163.095 111.264ZM157.959 104.664C157.959 101.88 159.759 99.5043 162.927 99.5043C166.143 99.5043 167.847 101.88 167.847 104.664C167.847 107.448 166.143 109.824 162.927 109.824C159.759 109.824 157.959 107.472 157.959 104.664ZM171.783 107.784C171.783 109.848 173.487 111.264 175.911 111.264C177.759 111.264 179.535 110.664 180.615 109.104L181.191 110.904H182.511L182.151 108.72V102.072C182.151 99.4803 180.327 98.0643 177.255 98.0643C174.495 98.0643 172.239 99.6483 172.119 102.048L173.583 102.624C173.583 100.416 175.263 99.4083 177.255 99.4083C178.935 99.4083 180.591 99.9603 180.591 101.64C180.591 103.08 180.039 103.32 175.767 104.088C173.391 104.52 171.783 105.672 171.783 107.784ZM173.487 107.736C173.487 106.224 174.663 105.672 176.199 105.36C179.343 104.712 180.159 104.616 180.591 104.16V105.84C180.591 108.168 178.935 109.944 176.223 109.944C174.495 109.944 173.487 108.984 173.487 107.736ZM185.861 98.4243V110.904H187.421V104.088C187.421 101.112 189.005 99.4803 191.549 99.4803C193.781 99.4803 195.005 100.8 195.005 103.176V110.904H196.565V102.936C196.565 99.9603 194.765 98.0883 191.717 98.0883C189.725 98.0883 188.333 98.8323 187.421 100.296V98.4243H185.861ZM198.366 98.4243L203.91 110.712L201.582 116.064H203.262L210.894 98.4243H209.19L204.774 108.936L200.094 98.4243H198.366Z" fill="white"/>
</svg>

<svg width="240" height="200" fill="none" xmlns="http://www.w3.org/2000/svg"><rect x="49.767" y="96.535" width="31.15" height="31.15" rx="6.3" fill="#fff"/><path fill-rule="evenodd" clip-rule="evenodd" d="M35.3 73a6.3 6.3 0 0 0-6.3 6.3v26.775a6.3 6.3 0 0 0 6.3 6.3h4.725v-18.27a6.3 6.3 0 0 1 6.3-6.3h22.05V79.3a6.3 6.3 0 0 0-6.3-6.3H35.3Z" fill="#fff"/><path d="M108.807 92.904c-4.632 0-9.072 3.36-9.072 9.168 0 5.88 4.392 9.192 9 9.192 3.336 0 6.096-1.632 7.608-4.104l-1.272-.96c-1.152 2.352-3.48 3.624-6.192 3.624-3.888 0-7.512-2.64-7.512-7.728 0-5.16 3.696-7.752 7.512-7.752 2.592 0 4.992 1.2 6.168 3.576l1.248-.984c-1.536-2.64-4.488-4.032-7.488-4.032Zm16.133 5.16c-3.648 0-6.552 2.664-6.552 6.6 0 3.936 2.904 6.6 6.552 6.6 3.648 0 6.576-2.664 6.576-6.6 0-3.936-2.928-6.6-6.576-6.6Zm-4.968 6.6c0-3.096 2.04-5.16 4.968-5.16s4.992 2.064 4.992 5.16-2.064 5.16-4.992 5.16c-2.856 0-4.968-2.064-4.968-5.16Zm14.537-6.24v12.48h1.56v-6.72c0-2.856 1.224-4.704 3.624-4.704 1.992 0 3.144 1.128 3.144 3.744v7.68h1.56v-7.2c0-2.568 1.272-4.224 3.624-4.224 1.992 0 3.144 1.128 3.144 3.672v7.752h1.56v-8.136c0-3.096-1.824-4.704-4.416-4.704-2.16 0-3.6 1.152-4.32 2.472-.672-1.464-2.016-2.472-4.008-2.472-1.704 0-3.096.768-3.912 2.184v-1.824h-1.56Zm28.586 12.84c3.888 0 6.336-2.952 6.336-6.6 0-3.648-2.448-6.6-6.336-6.6-2.328 0-4.056 1.032-5.088 2.568v-2.208h-1.56v17.64h1.56v-7.368c1.032 1.536 2.736 2.568 5.088 2.568Zm-5.136-6.6c0-2.784 1.8-5.16 4.968-5.16 3.216 0 4.92 2.376 4.92 5.16 0 2.784-1.704 5.16-4.92 5.16-3.168 0-4.968-2.352-4.968-5.16Zm13.824 3.12c0 2.064 1.704 3.48 4.128 3.48 1.848 0 3.624-.6 4.704-2.16l.576 1.8h1.32l-.36-2.184v-6.648c0-2.592-1.824-4.008-4.896-4.008-2.76 0-5.016 1.584-5.136 3.984l1.464.576c0-2.208 1.68-3.216 3.672-3.216 1.68 0 3.336.552 3.336 2.232 0 1.44-.552 1.68-4.824 2.448-2.376.432-3.984 1.584-3.984 3.696Zm1.704-.048c0-1.512 1.176-2.064 2.712-2.376 3.144-.648 3.96-.744 4.392-1.2v1.68c0 2.328-1.656 4.104-4.368 4.104-1.728 0-2.736-.96-2.736-2.208Zm12.374-9.312v12.48h1.56v-6.816c0-2.976 1.584-4.608 4.128-4.608 2.232 0 3.456 1.32 3.456 3.696v7.728h1.56v-7.968c0-2.976-1.8-4.848-4.848-4.848-1.992 0-3.384.744-4.296 2.208v-1.872h-1.56Zm12.505 0 5.544 12.288-2.328 5.352h1.68l7.632-17.64h-1.704l-4.416 10.512-4.68-10.512h-1.728Z" fill="#fff"/></svg>
